!!!OTL: Bonny Bunch of Roses O
!!!ONM: 68.
**kern
*clefG2
*k[]
*C:
!Referent unclear -- Conklin/Pearce 
*M6/8
*MM110
{4c
8c
=1
4f
8f
4g
8f
=2
8a
4.f
8r}
{8g
=3
4cc
8dd
4ee
8cc
=4
4.g
4.dd
=5
4.cc
4r}
{16cc
16dd
=6
(8ee
8dd)
8ee
(8ff
8ee)
8dd
=7
4.cc
4g}
{8e
=8
4f
8g
4a
8f
=9
4d
8c
4c}
{16c
16c
=10
4f
8g
4a
8f
=11
8a
4.g
8r}
{8g
=12
4cc
8dd
4ee
8cc
=13
4g
8dd
4cc}
{8dd
=14
4ee
8ee
4ff
8dd
=15
4cc
8b
4g}
{8e
=16
8f
8f
8g
4a
8g
=17
4.e
4.c
=18
4.e
4.c
=19
4.c}
==
*-
!!!CNT: Folksongs of Maritime Canada
!!!MRD: 1928///-1932///
!!!OCL: Helen Creighton
!!!YOR: Songs and Ballads from Nova Scotia
!!!PPR: J.M. Dent & Sons, Limited
!!!PPP: Toronto, Canada
!!!PDT: 1932///
!!!reprint: Dover Publications, 1992: ISBN 0-486-21703-5
!!!ENC1: Craig Stuart Sapp (music and bibliographic data)                       
!!!ENC2: Marcus Pearce (phrase markings and key designations)                   
!!!ENC3: Darrell Conklin (phrase markings and key designations)   
!!!END: 2002/04/10/
!!!EEV: 2004/06/05
!!!MPN: Mr. Alexander Henneberry
!!!PPG: 140
!!!EFL: 69/152
!!!ARE: Canada; Nova Scotia
!!!verses: 6
!!!VTS: 3307628197
